X:403
%%etbk:tnset id:118,pos:1,rep:3x,ant:
%%etbk:wsite http://www.thesession.org/tunes/display/3230
%%etbk:video src:ytube,cde:VbFH8RypwrY,desc:
%%etbk:pldat 2016-09-04T14:05,2015-12-24T16:17,2015-05-26T18:18,2015-04-23T18:49,2015-04-22T16:09,2015-04-21T15:47,2015-02-22T13:41,2015-02-17T17:51,2015-01-26T19:20,2014-12-17T18:53,2014-12-11T18:25,2014-11-19T17:02,2014-11-15T16:07,2014-10-11T15:07,2014-09-13T14:14,2014-05-06T17:10,2014-03-27T18:52,2014-03-20T18:46,2013-12-10T19:00,2013-11-23T16:39,2013-08-28T16:31,2013-05-22T18:03,2013-05-10T16:01,2013-05-06T18:44
T: Joe Bane's No. 2
S: Mary McNamara
Z: Piano Box Version by Martin Fleischmann
H: Created 2013-02-19 /  Last Modified 2013-02-19
M: 2/4
L: 1/8
R: polka
K: Gmaj
|:!2!G2 !3!Bc | !5!dG Bd | !4!c2 !2!Ac | !3!B!1!G !3!G!2!E |
!1!D!2!G !3!B!4!c | !5!dG Bd | !4!c2 Ad|[1 !1!G4:|[2 G3 !3!d||
|:!5!g!3!d !4!ed | !5!gd !4!ed | !2!B!1!G !5!g!3!d | !2!B!1!G !4!ed |
!5!gd !4!ed | gd !2!B!3!d | !2!ed !3!fa  |[1 !4![g3d]!3!d:|[2 [g4d]||


